X:2175
T:Menuett från Oravais
C:Trad
R:Menuett
O:Oravais, Österbotten, Finland
D:"Gryning" med Matilda och Martina Höök från Vilhelmina
N:[[http://www.youtube.com/watch?v=iOD9DTlyxR0|YouTube-klipp med J.P. Nyströms]]
Z:Nils L, 22 nov 2011
M:3/4
L:1/8
K:Dm
A>A Ac BG | A>F  G/F/E/F/ D2 | d>^c de fd | e>d ^cd A2 |
A>A Ac BG | A>F G/F/E/F/ D2- | D>E F/E/F/G/ A2 | FG/F/ EC D2 ::
C>F FE D2 | C>c cB A2 | A>B cB A2 | GE/G/ F2>G2 | 
A>F Ac BG | AF G/F/E/F/ D2- | DE F/E/F/G/ A2 | FG/F/ EC D2 :|
(:musicend:)

Ur finsk notuppteckning:

(:music:)
